X:1
T:Lost on the Lady Elgin
M:3/4
L:1/4
K:F
 A2 A/2G/2| A2 c| A F2-| F2 z| F2 F/2F/2| G2 F| A3-| A2 z| A A A| A2 c|\
 A F2-| F z F| G G G| A2 G| F3-| F2 z| A2 A/2G/2| A2 c| A F2-| F2 z|\
 F2 F/2F/2| G2 F| A3-| A2 z| c c c| B2 F| A F2-| F z F| G2 G| A2 G|\
 F3-| F2 z| A2 A/2G/2| A2 c| A F2-| F2 z| F F F| G2 F| A3-| A2 z| A A G|\
 A2 c| A F2-| F2 F| G2 G| A2 G| F3-| F3|
